X:1
T: The Dancing Dutch
N:
C:Pat Shaw
S:
A:
O:
R:
M:4/4
K:G
I:speed 200
%W: A1
% voice 1 (1 lines, 47 notes)
K:G
M:4/4
L:1/16
d4 |g6 a2 b4 d4 |e6 f2 g4 B4 |c4 B2 c2 A2 B2 c2 d2 |B2 c2 B2 A2 G4 d4 |g2 f2 g2 a2 b4 d4 |e2 d2 e2 f2 g4 a2 g2 |f2 g2 a2 f2 g2 f2 e2 d2 |A4 ^c4 d4 d4 |
%W: A2
% voice 1 (1 lines, 46 notes)
g6 a2 b4 d4 |e6 f2 g4 B4 |c4 B2 c2 A2 B2 c2 d2 |B2 c2 B2 A2 G4 d4 |g2 f2 g2 a2 b4 d4 |e2 d2 e2 f2 g4 a2 g2 |f2 g2 a2 f2 g2 f2 e2 d2 |A4 ^c4 d4 d4 |
%W: B1
% voice 1 (1 lines, 52 notes)
g6 a2 g4 d2 e2 |=f2 g2 f2 d2 e4 ^f2 ^g2 |a2 b2 c'2 b2 a2 g2 f2 e2 |f2 g2 f2 e2 d4 b2 c'2 |d'2 e'2 d'2 b2 c'2 d'2 c'2 a2 |b2 c'2 b2 g2 a4 d4 |e2 d2 e2 f2 g4 B4 |c2 B2 A4 G4 d4 |
%W: B2
% voice 1 (1 lines, 51 notes)
g6 a2 g4 d2 e2 |=f2 g2 f2 d2 e4 ^f2 ^g2 |a2 b2 c'2 b2 a2 g2 f2 e2 |f2 g2 f2 e2 d4 b2 c'2 |d'2 e'2 d'2 b2 c'2 d'2 c'2 a2 |b2 c'2 b2 g2 a4 d4 |e2 d2 e2 f2 g4 B4 |c2 B2 A4 G4 ||
